src/icons/icons_set_stations/013-station-soleil.svg

<svg viewBox="0 0 200 200" xmlns="http://www.w3.org/2000/svg"><path d="m99.76 81.54a18.31 18.31 0 1 1 -18.31 18.31 18.34 18.34 0 0 1 18.31-18.31zm0-8.82a27.13 27.13 0 0 0 -27.13 27.13 27.13 27.13 0 0 0 27.13 27.15 27.13 27.13 0 0 0 27.14-27.15 27.13 27.13 0 0 0 -27.14-27.13z"/><path d="m98.68 141.89h2.68a4.17 4.17 0 0 1 4.17 4.17v23.25a4.17 4.17 0 0 1 -4.17 4.17h-2.68a4.17 4.17 0 0 1 -4.17-4.17v-23.24a4.17 4.17 0 0 1 4.17-4.17z"/><path d="m98.68 26.51h2.68a4.17 4.17 0 0 1 4.17 4.17v23.25a4.17 4.17 0 0 1 -4.17 4.17h-2.68a4.17 4.17 0 0 1 -4.17-4.17v-23.25a4.17 4.17 0 0 1 4.17-4.17z"/><path d="m30.68 94.47h23.25a4.17 4.17 0 0 1 4.17 4.17v2.68a4.17 4.17 0 0 1 -4.17 4.17h-23.25a4.17 4.17 0 0 1 -4.17-4.17v-2.67a4.17 4.17 0 0 1 4.17-4.17z"/><path d="m146.07 94.47h23.25a4.17 4.17 0 0 1 4.17 4.17v2.68a4.17 4.17 0 0 1 -4.17 4.17h-23.25a4.17 4.17 0 0 1 -4.17-4.17v-2.67a4.17 4.17 0 0 1 4.17-4.17z"/><path d="m128.51 130.36 1.89-1.89a4.17 4.17 0 0 1 5.9 0l16.44 16.44a4.17 4.17 0 0 1 0 5.9l-1.89 1.89a4.17 4.17 0 0 1 -5.9 0l-16.44-16.44a4.17 4.17 0 0 1 0-5.9z"/><path d="m46.92 48.78 1.89-1.89a4.17 4.17 0 0 1 5.9 0l16.44 16.44a4.17 4.17 0 0 1 0 5.9l-1.89 1.89a4.17 4.17 0 0 1 -5.9 0l-16.44-16.44a4.17 4.17 0 0 1 0-5.9z"/><path d="m47.07 145.12 16.44-16.44a4.17 4.17 0 0 1 5.9 0l1.89 1.89a4.17 4.17 0 0 1 0 5.9l-16.43 16.45a4.17 4.17 0 0 1 -5.9 0l-1.9-1.92a4.17 4.17 0 0 1 0-5.9z"/><path d="m128.68 63.53 16.44-16.44a4.17 4.17 0 0 1 5.9 0l1.9 1.91a4.17 4.17 0 0 1 0 5.9l-16.45 16.43a4.17 4.17 0 0 1 -5.9 0l-1.89-1.89a4.17 4.17 0 0 1 0-5.91z"/></svg>

<svg id="Icons" xmlns="http://www.w3.org/2000/svg" viewBox="0 0 200 200"><title>sun</title><path d="M99.76,81.54A18.31,18.31,0,1,1,81.45,99.85,18.34,18.34,0,0,1,99.76,81.54Zm0-8.82h0A27.13,27.13,0,0,0,72.63,99.85h0A27.13,27.13,0,0,0,99.76,127h0A27.13,27.13,0,0,0,126.9,99.85h0A27.13,27.13,0,0,0,99.76,72.72h0Z"/><path d="M98.68,141.89h2.68a4.17,4.17,0,0,1,4.17,4.17v23.25a4.17,4.17,0,0,1-4.17,4.17H98.68a4.17,4.17,0,0,1-4.17-4.17V146.07a4.17,4.17,0,0,1,4.17-4.17Z"/><path d="M98.68,26.51h2.68a4.17,4.17,0,0,1,4.17,4.17V53.93a4.17,4.17,0,0,1-4.17,4.17H98.68a4.17,4.17,0,0,1-4.17-4.17V30.68A4.17,4.17,0,0,1,98.68,26.51Z"/><path d="M30.68,94.47H53.93a4.17,4.17,0,0,1,4.17,4.17v2.68a4.17,4.17,0,0,1-4.17,4.17H30.68a4.17,4.17,0,0,1-4.17-4.17V98.65a4.17,4.17,0,0,1,4.17-4.17Z"/><path d="M146.07,94.47h23.25a4.17,4.17,0,0,1,4.17,4.17v2.68a4.17,4.17,0,0,1-4.17,4.17H146.07a4.17,4.17,0,0,1-4.17-4.17V98.65a4.17,4.17,0,0,1,4.17-4.17Z"/><path d="M128.51,130.36l1.89-1.89a4.17,4.17,0,0,1,5.9,0l16.44,16.44a4.17,4.17,0,0,1,0,5.9l-1.89,1.89a4.17,4.17,0,0,1-5.9,0l-16.44-16.44A4.17,4.17,0,0,1,128.51,130.36Z"/><path d="M46.92,48.78l1.89-1.89a4.17,4.17,0,0,1,5.9,0L71.15,63.33a4.17,4.17,0,0,1,0,5.9l-1.89,1.89a4.17,4.17,0,0,1-5.9,0L46.92,54.68a4.17,4.17,0,0,1,0-5.9Z"/><path d="M47.07,145.12l16.44-16.44a4.17,4.17,0,0,1,5.9,0l1.89,1.89a4.17,4.17,0,0,1,0,5.9L54.87,152.92a4.17,4.17,0,0,1-5.9,0L47.07,151a4.17,4.17,0,0,1,0-5.9Z"/><path d="M128.68,63.53l16.44-16.44a4.17,4.17,0,0,1,5.9,0L152.92,49a4.17,4.17,0,0,1,0,5.9L136.47,71.33a4.17,4.17,0,0,1-5.9,0l-1.89-1.89A4.17,4.17,0,0,1,128.68,63.53Z"/></svg>
